_includes/icons/ios-barber-chair.svg

<svg fill="#666" height="50" viewBox="0 0 50 50" width="50" xmlns="http://www.w3.org/2000/svg"><path d="m46 0c-1.941406 0-3.855469.796875-5.40625 2.5s-2.789062 4.234375-3.71875 7.875c-.394531 1.539063-.804687 3.503906-1.125 5.625h-6.75c-2.347656 0-4.761719.210938-6.71875 1.375-1.957031 1.164063-3.28125 3.378906-3.28125 6.625v.09375c-2.058594.050781-3.738281.195313-5.0625.625-.867187.28125-1.621094.730469-2.15625 1.375s-.78125 1.480469-.78125 2.375c0 1.816406.425781 3.40625 1.28125 4.59375.84375 1.171875 2.167969 1.886719 3.65625 1.90625-.230469 4.117188-1.875 6.234375-3.84375 7.46875-2.121094 1.328125-4.695312 1.5625-6.09375 1.5625h-5c-.359375-.003906-.695312.183594-.878906.496094-.1796878.3125-.1796878.695312 0 1.007812.183594.3125.519531.5.878906.496094h5c1.601563 0 4.527344-.226562 7.15625-1.875 2.464844-1.546875 4.558594-4.429687 4.8125-9.15625 1.660156 0 4.261719-.003906 8.03125 0v9.21875c-1.855469.214844-3.574219.597656-5 1.125-1.085937.402344-2.011719.867188-2.71875 1.4375-.707031.570313-1.28125 1.3125-1.28125 2.25v1h24v-1c0-.9375-.574219-1.679687-1.28125-2.25-.707031-.570312-1.632812-1.035156-2.71875-1.4375-1.425781-.527344-3.144531-.910156-5-1.125v-9.1875c2.027344.003906 5.277344 0 5.53125 0 1.316406 0 2.320313-.871094 2.8125-1.8125.355469-.675781.519531-1.40625.59375-2.09375.039063-.070312.070313-.140625.09375-.21875.304688-.894531 7.980469-22.980469 8.53125-24.5625.441406-1.269531.644531-2.699219.15625-4s-1.867187-2.3125-3.71875-2.3125zm0 2c1.257813 0 1.605469.363281 1.84375 1s.175781 1.703125-.15625 2.65625c-.507812 1.457031-6.632812 19.046875-7.90625 22.71875-.433594-.320312-.925781-.609375-1.5-.875-.230469-.109375-.496094-.207031-.75-.3125-.011719-.011719-.019531-.019531-.03125-.03125-.871094-3.902344.242188-12.097656 1.3125-16.28125.878906-3.441406 2.054688-5.683594 3.28125-7.03125 1.226563-1.347656 2.472656-1.84375 3.90625-1.84375zm-17 16h6.5c-.34375 2.9375-.492187 5.960938-.15625 8.40625-.753906-.234375-1.539062-.449219-2.375-.65625-4.085937-1.007812-8.859375-1.6875-11.96875-1.6875 0-.019531 0-.042969 0-.0625 0-2.753906.90625-4.039062 2.3125-4.875 1.40625-.835937 3.488281-1.125 5.6875-1.125zm-8 8.0625c2.808594 0 7.535156.65625 11.46875 1.625 1.964844.484375 3.753906 1.058594 4.96875 1.625.609375.28125 1.089844.558594 1.34375.78125.191406.164063.21875.253906.21875.25-.003906.640625-.140625 1.429688-.40625 1.9375-.269531.515625-.511719.71875-1.0625.71875-.28125 0-3.835937.003906-6.34375 0-.132812-.027344-.273437-.027344-.40625 0-1.480469-.003906-1.921875.003906-3.625 0-.105469-.015625-.207031-.015625-.3125 0-4.585937-.007812-8.277344-.03125-9.75-.03125-.027344 0-.160156 0-.1875 0-.125 0-.839844 0-.90625 0-.90625 0-1.558594-.351562-2.09375-1.09375-.535156-.742187-.90625-1.90625-.90625-3.40625 0-.546875.128906-.863281.34375-1.125s.582031-.511719 1.21875-.71875c1.269531-.414062 3.472656-.5625 6.4375-.5625zm7 8.9375h2v9.03125c-.332031-.011719-.664062-.03125-1-.03125-.335937 0-.667969.019531-1 .03125zm1 11c2.765625 0 5.421875.488281 7.3125 1.1875.683594.253906 1.121094.535156 1.5625.8125h-17.75c.441406-.277344.878906-.558594 1.5625-.8125 1.890625-.699219 4.546875-1.1875 7.3125-1.1875z"/></svg>

<svg xmlns="http://www.w3.org/2000/svg" viewBox="0 0 50 50" width="50" height="50" fill="#666"><path d="M 46 0 C 44.058594 0 42.144531 0.796875 40.59375 2.5 C 39.042969 4.203125 37.804688 6.734375 36.875 10.375 C 36.480469 11.914063 36.070313 13.878906 35.75 16 L 29 16 C 26.652344 16 24.238281 16.210938 22.28125 17.375 C 20.324219 18.539063 19 20.753906 19 24 C 19 24.03125 19 24.0625 19 24.09375 C 16.941406 24.144531 15.261719 24.289063 13.9375 24.71875 C 13.070313 25 12.316406 25.449219 11.78125 26.09375 C 11.246094 26.738281 11 27.574219 11 28.46875 C 11 30.285156 11.425781 31.875 12.28125 33.0625 C 13.125 34.234375 14.449219 34.949219 15.9375 34.96875 C 15.707031 39.085938 14.0625 41.203125 12.09375 42.4375 C 9.972656 43.765625 7.398438 44 6 44 L 1 44 C 0.640625 43.996094 0.304688 44.183594 0.121094 44.496094 C -0.0585938 44.808594 -0.0585938 45.191406 0.121094 45.503906 C 0.304688 45.816406 0.640625 46.003906 1 46 L 6 46 C 7.601563 46 10.527344 45.773438 13.15625 44.125 C 15.621094 42.578125 17.714844 39.695313 17.96875 34.96875 C 19.628906 34.96875 22.230469 34.964844 26 34.96875 L 26 44.1875 C 24.144531 44.402344 22.425781 44.785156 21 45.3125 C 19.914063 45.714844 18.988281 46.179688 18.28125 46.75 C 17.574219 47.320313 17 48.0625 17 49 L 17 50 L 41 50 L 41 49 C 41 48.0625 40.425781 47.320313 39.71875 46.75 C 39.011719 46.179688 38.085938 45.714844 37 45.3125 C 35.574219 44.785156 33.855469 44.402344 32 44.1875 L 32 35 C 34.027344 35.003906 37.277344 35 37.53125 35 C 38.847656 35 39.851563 34.128906 40.34375 33.1875 C 40.699219 32.511719 40.863281 31.78125 40.9375 31.09375 C 40.976563 31.023438 41.007813 30.953125 41.03125 30.875 C 41.335938 29.980469 49.011719 7.894531 49.5625 6.3125 C 50.003906 5.042969 50.207031 3.613281 49.71875 2.3125 C 49.230469 1.011719 47.851563 0 46 0 Z M 46 2 C 47.257813 2 47.605469 2.363281 47.84375 3 C 48.082031 3.636719 48.019531 4.703125 47.6875 5.65625 C 47.179688 7.113281 41.054688 24.703125 39.78125 28.375 C 39.347656 28.054688 38.855469 27.765625 38.28125 27.5 C 38.050781 27.390625 37.785156 27.292969 37.53125 27.1875 C 37.519531 27.175781 37.511719 27.167969 37.5 27.15625 C 36.628906 23.253906 37.742188 15.058594 38.8125 10.875 C 39.691406 7.433594 40.867188 5.191406 42.09375 3.84375 C 43.320313 2.496094 44.566406 2 46 2 Z M 29 18 L 35.5 18 C 35.15625 20.9375 35.007813 23.960938 35.34375 26.40625 C 34.589844 26.171875 33.804688 25.957031 32.96875 25.75 C 28.882813 24.742188 24.109375 24.0625 21 24.0625 C 21 24.042969 21 24.019531 21 24 C 21 21.246094 21.90625 19.960938 23.3125 19.125 C 24.71875 18.289063 26.800781 18 29 18 Z M 21 26.0625 C 23.808594 26.0625 28.535156 26.71875 32.46875 27.6875 C 34.433594 28.171875 36.222656 28.746094 37.4375 29.3125 C 38.046875 29.59375 38.527344 29.871094 38.78125 30.09375 C 38.972656 30.257813 39 30.347656 39 30.34375 C 38.996094 30.984375 38.859375 31.773438 38.59375 32.28125 C 38.324219 32.796875 38.082031 33 37.53125 33 C 37.25 33 33.695313 33.003906 31.1875 33 C 31.054688 32.972656 30.914063 32.972656 30.78125 33 C 29.300781 32.996094 28.859375 33.003906 27.15625 33 C 27.050781 32.984375 26.949219 32.984375 26.84375 33 C 22.257813 32.992188 18.566406 32.96875 17.09375 32.96875 C 17.066406 32.96875 16.933594 32.96875 16.90625 32.96875 C 16.78125 32.96875 16.066406 32.96875 16 32.96875 C 15.09375 32.96875 14.441406 32.617188 13.90625 31.875 C 13.371094 31.132813 13 29.96875 13 28.46875 C 13 27.921875 13.128906 27.605469 13.34375 27.34375 C 13.558594 27.082031 13.925781 26.832031 14.5625 26.625 C 15.832031 26.210938 18.035156 26.0625 21 26.0625 Z M 28 35 C 28.925781 35 29.140625 35 30 35 L 30 44.03125 C 29.667969 44.019531 29.335938 44 29 44 C 28.664063 44 28.332031 44.019531 28 44.03125 Z M 29 46 C 31.765625 46 34.421875 46.488281 36.3125 47.1875 C 36.996094 47.441406 37.433594 47.722656 37.875 48 L 20.125 48 C 20.566406 47.722656 21.003906 47.441406 21.6875 47.1875 C 23.578125 46.488281 26.234375 46 29 46 Z"/></svg>
